Resources/Public/Icons/symbols/shortcut.svg

<?xml version="1.0" encoding="ISO-8859-1" standalone="no"?>
<!DOCTYPE svg PUBLIC "-//W3C//DTD SVG 1.1//EN" "http://www.w3.org/Graphics/SVG/1.1/DTD/svg11.dtd">
<svg xmlns="http://www.w3.org/2000/svg" xmlns:xlink="http://www.w3.org/1999/xlink" xml:space="preserve" width="16px" height="16px" viewBox="0 0 16 16" zoomAndPan="disable" preserveAspectRatio="xmaxYmax">
<path d="M 7.825226,1.151418 C 6.3684987,0.90975424 4.8669712,1.2693017 3.5310254,1.8449891 2.8353504,2.2239073 2.1731508,2.6831036 1.5587104,3.1743702 0.99284967,3.8907562 0.12427132,4.602735 0.23702995,5.6121115 0.43769284,6.4937812 1.6417094,6.1899053 1.943621,5.4253694 2.2069531,4.8374857 2.7913217,4.4159792 3.3512225,4.110354 3.9854933,3.7394799 4.8296351,3.6470469 5.4060141,4.1880107 6.0876202,4.7570696 6.9792639,5.6832762 6.9466278,6.5550042 6.6410586,7.250383 5.2272866,6.736676 4.6540202,6.8864475 2.9020374,6.929919 4.057634,8.1748137 4.5374255,8.6887302 c 0.8220456,1.1096835 1.7408171,2.1439858 2.5646936,3.2531078 0.6909527,0.845413 1.3265007,1.761794 2.0968757,2.526787 0.7367171,0.345967 1.3562272,-0.388007 1.7349742,-0.930339 1.458602,-1.902934 3.019085,-3.7278169 4.453847,-5.6501672 0.348325,-1.026361 0.474549,-1.3858665 -1.91658,-0.883435 C 12.591716,6.8623183 12.648003,6.2309938 12.350761,5.5569027 11.924133,4.334783 11.515638,2.7939727 10.44774,2.0367962 9.663336,1.5280182 8.7376824,1.2993025 7.825226,1.151418 Z M 7.5230706,1.4485435 c 0.168067,0.028988 -0.2346946,0.3429357 0,0 z"/>
</svg>

<svg xmlns="http://www.w3.org/2000/svg" width="16" height="16" zoomAndPan="disable" preserveAspectRatio="xmaxYmax"><path d="M7.825 1.15c-1.457-.24-2.958.12-4.294.695-.695.38-1.357.838-1.97 1.33C.992 3.89.123 4.602.236 5.61c.2.882 1.405.578 1.707-.187.263-.588.847-1.01 1.407-1.315.635-.37 1.48-.463 2.056.078.682.57 1.573 1.495 1.54 2.367-.305.695-1.72.182-2.292.33-1.752.045-.596 1.29-.117 1.804.822 1.108 1.74 2.143 2.565 3.252.69.845 1.327 1.762 2.097 2.527.736.345 1.355-.39 1.734-.932 1.46-1.903 3.02-3.728 4.454-5.65.348-1.026.474-1.386-1.917-.883-.878-.143-.822-.774-1.12-1.448-.426-1.222-.834-2.763-1.902-3.52-.785-.51-1.71-.738-2.623-.886zm-.302.3c.168.028-.235.34 0 0z"/></svg>
